svg/icon/rub.svg

<svg xmlns="http://www.w3.org/2000/svg" xmlns:xlink="http://www.w3.org/1999/xlink" width="32" height="32" viewBox="0 0 32 32"><defs><linearGradient id="rub-c" x1="50%" x2="50%" y1="0%" y2="100%"><stop offset="0%" stop-color="#FFF" stop-opacity=".5"/><stop offset="100%" stop-opacity=".5"/></linearGradient><circle id="rub-b" cx="16" cy="15" r="15"/><filter id="rub-a" width="111.7%" height="111.7%" x="-5.8%" y="-4.2%" filterUnits="objectBoundingBox"><feOffset dy=".5" in="SourceAlpha" result="shadowOffsetOuter1"/><feGaussianBlur in="shadowOffsetOuter1" result="shadowBlurOuter1" stdDeviation=".5"/><feComposite in="shadowBlurOuter1" in2="SourceAlpha" operator="out" result="shadowBlurOuter1"/><feColorMatrix in="shadowBlurOuter1" values="0 0 0 0 0 0 0 0 0 0 0 0 0 0 0 0 0 0 0.199473505 0"/></filter><path id="rub-e" d="M10.5,14.2381636 L12.2639752,14.2381636 L12.2639752,6 L16.810559,6 C17.6552837,6 18.4254624,6.09899471 19.121118,6.29698709 C19.8167737,6.49497947 20.413041,6.7962677 20.9099379,7.20086083 C21.4068348,7.60545396 21.7960648,8.11764396 22.0776398,8.7374462 C22.3592147,9.35724844 22.5,10.0975567 22.5,10.9583931 C22.5,11.8192296 22.3509332,12.568146 22.052795,13.205165 C21.7546569,13.842184 21.3488639,14.3715904 20.8354037,14.7934003 C20.3219436,15.2152101 19.7173948,15.5294107 19.0217391,15.7360115 C18.3260835,15.9426122 17.5724678,16.045911 16.7608696,16.045911 L14.2515528,16.045911 L14.2515528,18.6542324 L18.2515528,18.6542324 L18.2515528,20.3586801 L14.2515528,20.3586801 L14.2515528,24 L12.2639752,24 L12.2639752,20.3586801 L10.5,20.3586801 L10.5,18.6542324 L12.2639752,18.6542324 L12.2639752,16.045911 L10.5,16.045911 L10.5,14.2381636 Z M16.810559,14.2381636 C17.9534219,14.2381636 18.8519636,13.9670041 19.5062112,13.4246772 C20.1604588,12.8823502 20.4875776,12.0602638 20.4875776,10.9583931 C20.4875776,9.85652247 20.1604588,9.05595659 19.5062112,8.55667145 C18.8519636,8.05738631 17.9534219,7.80774749 16.810559,7.80774749 L14.2515528,7.80774749 L14.2515528,14.2381636 L16.810559,14.2381636 Z"/><filter id="rub-d" width="129.2%" height="119.4%" x="-14.6%" y="-6.9%" filterUnits="objectBoundingBox"><feOffset dy=".5" in="SourceAlpha" result="shadowOffsetOuter1"/><feGaussianBlur in="shadowOffsetOuter1" result="shadowBlurOuter1" stdDeviation=".5"/><feColorMatrix in="shadowBlurOuter1" values="0 0 0 0 0 0 0 0 0 0 0 0 0 0 0 0 0 0 0.204257246 0"/></filter></defs><g fill="none" fill-rule="evenodd"><use fill="#000" filter="url(#rub-a)" xlink:href="#rub-b"/><use fill="#64D1FF" xlink:href="#rub-b"/><use fill="url(#rub-c)" style="mix-blend-mode:soft-light" xlink:href="#rub-b"/><circle cx="16" cy="15" r="14.5" stroke="#000" stroke-opacity=".097"/><g><use fill="#000" filter="url(#rub-d)" xlink:href="#rub-e"/><use fill="#FFF" xlink:href="#rub-e"/></g></g></svg>

<svg xmlns="http://www.w3.org/2000/svg" xmlns:xlink="http://www.w3.org/1999/xlink" width="32" height="32" viewBox="0 0 32 32"><defs><linearGradient id="c" x1="50%" x2="50%" y1="0%" y2="100%"><stop offset="0%" stop-color="#FFF" stop-opacity=".5"/><stop offset="100%" stop-opacity=".5"/></linearGradient><circle id="b" cx="16" cy="15" r="15"/><filter id="a" width="111.7%" height="111.7%" x="-5.8%" y="-4.2%" filterUnits="objectBoundingBox"><feOffset dy=".5" in="SourceAlpha" result="shadowOffsetOuter1"/><feGaussianBlur in="shadowOffsetOuter1" result="shadowBlurOuter1" stdDeviation=".5"/><feComposite in="shadowBlurOuter1" in2="SourceAlpha" operator="out" result="shadowBlurOuter1"/><feColorMatrix in="shadowBlurOuter1" values="0 0 0 0 0 0 0 0 0 0 0 0 0 0 0 0 0 0 0.199473505 0"/></filter><path id="e" d="M10.5 14.238h1.764V6h4.547c.844 0 1.614.099 2.31.297.696.198 1.292.5 1.789.904.497.404.886.917 1.168 1.536.281.62.422 1.36.422 2.221s-.15 1.61-.447 2.247a4.478 4.478 0 0 1-1.218 1.588 5.113 5.113 0 0 1-1.813.943 7.91 7.91 0 0 1-2.261.31h-2.51v2.608h4v1.705h-4V24h-1.987v-3.641H10.5v-1.705h1.764v-2.608H10.5v-1.808zm6.31 0c1.143 0 2.042-.271 2.696-.813.654-.543.982-1.365.982-2.467 0-1.101-.328-1.902-.982-2.401-.654-.5-1.553-.75-2.695-.75h-2.56v6.431h2.56z"/><filter id="d" width="129.2%" height="119.4%" x="-14.6%" y="-6.9%" filterUnits="objectBoundingBox"><feOffset dy=".5" in="SourceAlpha" result="shadowOffsetOuter1"/><feGaussianBlur in="shadowOffsetOuter1" result="shadowBlurOuter1" stdDeviation=".5"/><feColorMatrix in="shadowBlurOuter1" values="0 0 0 0 0 0 0 0 0 0 0 0 0 0 0 0 0 0 0.204257246 0"/></filter></defs><g fill="none" fill-rule="evenodd"><use fill="#000" filter="url(#a)" xlink:href="#b"/><use fill="#64D1FF" xlink:href="#b"/><use fill="url(#c)" style="mix-blend-mode:soft-light" xlink:href="#b"/><circle cx="16" cy="15" r="14.5" stroke="#000" stroke-opacity=".097"/><use fill="#000" filter="url(#d)" xlink:href="#e"/><use fill="#FFF" xlink:href="#e"/></g></svg>
